img/github.svg

<svg width="32" height="32" xmlns="http://www.w3.org/2000/svg" fill="none">
 <g>
  <title>Layer 1</title>
  <path fill-rule="evenodd" clip-rule="evenodd" d="m0,0l32,0l0,32l-32,0l0,-32zm8,16.1675c0,-4.4036 3.5718,-7.9755 7.9755,-7.9755c4.4037,0 7.9755,3.5719 8.0245,7.9755c0,3.523 -2.2508,6.5077 -5.4312,7.5841c-0.3914,0.049 -0.5382,-0.1957 -0.5382,-0.3914l0,-2.2018c0,-0.734 -0.2447,-1.2233 -0.5382,-1.4679c1.7614,-0.1957 3.6208,-0.8318 3.6208,-3.9144c0,-0.8807 -0.3426,-1.6147 -0.8318,-2.1529c0.0038,-0.0154 0.0092,-0.0347 0.0156,-0.0577c0.0749,-0.2702 0.2922,-1.0544 -0.1135,-2.0463c0,0 -0.685,-0.1957 -2.2019,0.8318c-0.636,-0.1468 -1.3211,-0.2446 -2.0061,-0.2446c-0.685,0 -1.37,0.0489 -2.0061,0.2446c-1.5168,-1.0275 -2.2018,-0.8318 -2.2018,-0.8318c-0.4325,1.0571 -0.1571,1.8783 -0.1007,2.0465l0.0028,0.0086c-0.5382,0.5871 -0.8318,1.2721 -0.8318,2.1529c0,3.0825 1.8594,3.7676 3.6208,3.9633c-0.1957,0.1957 -0.4403,0.5382 -0.4893,1.0764c-0.4403,0.1957 -1.5657,0.5383 -2.2997,-0.685c0,0 -0.4403,-0.7829 -1.2232,-0.8318c0,0 -0.78286,0 -0.0489,0.4893c0,0 0.5382,0.2447 0.8807,1.1743c0,0 0.4893,1.5658 2.6911,1.0765l0,1.37c0,0.1957 -0.1468,0.4404 -0.5382,0.3914c-3.1315,-1.0764 -5.4312,-4.0611 -5.4312,-7.5841z" fill="#ffffff" id="svg_1"/>
 </g>

</svg>

<svg width="32" height="32" viewBox="0 0 32 32" fill="none" xmlns="http://www.w3.org/2000/svg">
<path fill-rule="evenodd" clip-rule="evenodd" d="M0 0H32V32H0V0ZM8 16.1675C8 11.7639 11.5718 8.192 15.9755 8.192C20.3792 8.192 23.951 11.7639 24 16.1675C24 19.6905 21.7492 22.6752 18.5688 23.7516C18.1774 23.8006 18.0306 23.5559 18.0306 23.3602V21.1584C18.0306 20.4244 17.7859 19.9351 17.4924 19.6905C19.2538 19.4948 21.1132 18.8587 21.1132 15.7761C21.1132 14.8954 20.7706 14.1614 20.2814 13.6232C20.2852 13.6078 20.2906 13.5885 20.297 13.5655C20.3719 13.2953 20.5892 12.5111 20.1835 11.5192C20.1835 11.5192 19.4985 11.3235 17.9816 12.351C17.3456 12.2042 16.6605 12.1064 15.9755 12.1064C15.2905 12.1064 14.6055 12.1553 13.9694 12.351C12.4526 11.3235 11.7676 11.5192 11.7676 11.5192C11.3351 12.5763 11.6105 13.3975 11.6669 13.5657L11.6697 13.5743C11.1315 14.1614 10.8379 14.8464 10.8379 15.7272C10.8379 18.8097 12.6973 19.4948 14.4587 19.6905C14.263 19.8862 14.0184 20.2287 13.9694 20.7669C13.5291 20.9626 12.4037 21.3052 11.6697 20.0819C11.6697 20.0819 11.2294 19.299 10.4465 19.2501C10.4465 19.2501 9.66364 19.2501 10.3976 19.7394C10.3976 19.7394 10.9358 19.9841 11.2783 20.9137C11.2783 20.9137 11.7676 22.4795 13.9694 21.9902V23.3602C13.9694 23.5559 13.8226 23.8006 13.4312 23.7516C10.2997 22.6752 8 19.6905 8 16.1675Z" fill="black"/>
</svg>
